icons/Yarn-Light.svg

<svg width="256" height="256" viewBox="0 0 256 256" fill="none" xmlns="http://www.w3.org/2000/svg">
<g clip-path="url(#clip0_33_538)">
<path d="M196 0H60C26.8629 0 0 26.8629 0 60V196C0 229.137 26.8629 256 60 256H196C229.137 256 256 229.137 256 196V60C256 26.8629 229.137 0 196 0Z" fill="#F4F2ED"/>
<g clip-path="url(#clip1_33_538)">
<path d="M128.045 28C182.695 28.1073 226.564 71.5842 227.967 125.288C229.453 182.971 182.456 229.288 125.709 227.975C72.6527 226.77 30.4436 184.432 28.1074 132.635C25.507 75.2327 71.431 27.9588 128.045 28Z" fill="#3398C2"/>
<path d="M91.2105 98.0318C91.8626 95.4976 92.8037 93.046 94.009 90.7099C95.1895 88.4565 96.8736 86.7725 99.3171 85.9636C101.067 85.394 102.528 84.3869 103.841 83.058C108.472 78.4024 114.094 75.6949 120.632 74.9685C121.705 74.8612 122.25 74.465 122.663 73.4579C123.645 71.0723 124.867 68.7776 126.485 66.7469C128.623 64.0559 131.182 62.0501 134.881 62.2647C137.217 62.3968 139.165 63.3791 140.585 65.2611C142.178 67.3578 143.359 69.7021 144.498 72.0629C144.87 72.8305 145.175 73.1112 146.116 72.9131C149.567 72.1454 152.365 73.656 153.851 76.867C155.577 80.6229 156.41 84.6016 156.823 88.6711C157.698 97.132 157.129 105.461 154.264 113.567C152.58 118.33 150.219 122.746 147.338 126.898C146.991 127.402 146.9 127.732 147.379 128.252C155.098 136.911 158.879 147.006 158.441 158.637V159.471C158.986 159.495 159.407 159.165 159.82 158.942C163.229 157.192 166.333 154.964 169.767 153.238C174.597 150.811 179.649 149.111 185.13 149.152C193.237 149.218 198.446 157.11 195.053 164.143C193.716 166.916 191.537 168.889 188.54 169.541C183.075 170.763 178.221 173.239 173.59 176.277C165.962 181.345 157.607 185.109 148.865 187.99C148.279 188.188 147.726 188.428 147.222 188.824C144.886 190.574 142.154 191.292 139.306 191.688C130.671 192.893 121.994 193.413 113.293 193.785C109.71 193.942 106.144 193.455 102.974 191.556C102.124 191.028 101.381 190.045 100.506 189.897C99.6556 189.765 98.6897 190.549 97.7486 190.772C92.1763 192.018 86.9508 190.97 82.1214 188.04C79.2569 186.314 77.903 183.582 78.0516 180.214C78.0929 179.315 77.837 178.662 77.3086 177.944C74.9889 174.708 73.8579 171.019 73.2223 167.123C71.9757 159.454 74.7082 153.114 79.7769 147.559C80.2557 147.031 80.4291 146.511 80.4291 145.809C80.4291 138.141 81.8903 130.835 85.828 124.149C88.0322 120.41 90.8803 117.199 94.0503 114.293C94.6612 113.748 94.7272 113.377 94.3144 112.675C92.9771 110.447 92.1516 107.995 91.4251 105.502C90.8142 105.065 91.2105 104.388 90.9628 103.843C90.9215 103.43 90.9628 103.009 90.8307 102.597V99.8643C90.938 99.468 90.938 99.0553 90.938 98.6426C91.0371 98.4445 90.9958 98.1803 91.2105 98.0318Z" fill="#FEFEFE"/>
<path d="M91.1444 103.826C91.3178 104.371 91.1032 104.982 91.4251 105.51C91.3343 105.576 91.3343 106.014 91.2105 105.709C90.9711 105.122 90.7977 104.462 90.7977 103.826C90.7564 101.73 90.5583 99.6084 91.1444 97.5283C91.1692 97.7016 91.1857 97.875 91.2352 98.0318C91.2105 98.2299 91.194 98.428 91.1692 98.6014C90.9711 98.9728 91.194 99.4103 90.9958 99.7818V102.646C91.1444 103.018 90.9546 103.455 91.1444 103.826Z" fill="#3298C3"/>
<path d="M152.572 159.776C152.572 161.79 152.109 163.755 151.854 165.719C151.639 167.444 151.812 167.643 153.562 167.337C157.5 166.66 161.058 165.001 164.492 163.053C168.166 160.956 171.666 158.571 175.596 157.002C178.634 155.781 181.738 154.972 185.04 154.972C187.904 154.972 189.894 156.524 190.24 158.975C190.571 161.245 189.324 163.416 187.046 163.895C180.532 165.274 174.91 168.485 169.429 172.051C162.082 176.797 154.082 180.223 145.753 182.848C145.447 182.938 145.051 183.004 144.853 183.194C142.888 185.274 140.288 185.621 137.663 185.968C130.299 186.934 122.886 187.363 115.456 187.8C113.318 187.932 111.172 187.998 109.034 187.586C105.624 186.909 104.179 185.638 103.659 182.839C103.197 180.322 104.378 177.944 106.895 176.302C107.16 176.128 107.44 175.955 107.861 175.691C106.507 174.857 105.393 173.875 104.543 172.653C104.13 172.084 103.907 172.439 103.775 172.917C103.362 174.494 102.941 176.087 102.528 177.664C102.248 178.712 101.893 179.744 101.455 180.743C100.184 183.648 97.8725 185.051 94.8098 185.332C91.681 185.613 88.7339 184.919 85.9354 183.541C84.0119 182.6 83.4423 181.18 84.0779 179.1C84.4081 177.986 85.0438 177.02 85.8033 175.839C83.1616 176.368 81.9976 174.832 81.0813 172.975C79.0257 168.906 78.324 164.605 79.1578 160.147C79.8347 156.606 81.9151 153.725 84.4081 151.233C85.8693 149.771 86.3069 148.368 86.2656 146.313C85.9354 134.443 90.418 124.694 99.6473 117.158C100.456 116.481 101.265 115.779 102.116 115.168C102.644 114.797 102.702 114.557 102.273 114.013C99.8867 111.016 98.0293 107.764 97.179 103.983C96.2132 99.724 97.6578 96.0259 99.8042 92.4847C100.11 92.006 100.588 91.7666 101.117 91.5685C103.808 90.6027 106.078 89.1416 108.134 87.0862C112.765 82.4554 118.494 80.334 125.049 80.6147C125.883 80.6559 126.254 80.4165 126.51 79.6324C127.492 76.768 128.714 74.011 130.357 71.4603C130.968 70.4946 131.645 69.6031 132.52 68.8849C134.138 67.5477 135.516 67.7458 136.606 69.5205C138.62 72.7315 140.172 76.1902 141.741 79.6406C142.137 80.5156 142.443 80.821 143.359 80.2267C144.432 79.5498 145.629 79.0711 146.834 78.6501C147.8 78.3199 148.362 78.5428 148.783 79.5498C150.004 82.4967 150.665 85.5839 151.036 88.7537C151.144 89.6286 151.342 90.4789 151.234 91.3539C151.168 93.2524 151.259 95.1592 151.276 97.0825C151.276 97.9328 150.97 98.7912 151.234 99.658C151.036 104.858 149.658 109.778 147.652 114.541C145.769 118.998 143.037 122.952 140.304 126.915C139.231 128.442 139.256 128.466 140.651 129.713C147.47 135.854 151.234 143.572 152.497 152.578C152.539 152.925 152.522 153.296 152.522 153.668C152.242 154.501 152.547 155.31 152.564 156.119C152.638 157.349 152.357 158.579 152.572 159.776Z" fill="#3398C2"/>
<path d="M151.259 99.6744C150.995 99.4598 151.061 99.1461 151.061 98.8655V92.1958C151.061 91.9151 150.995 91.6097 151.259 91.3868C151.548 94.1439 151.565 96.9174 151.259 99.6744Z" fill="#2B95C1"/>
<path d="M152.572 159.776C152.134 158.092 152.481 156.392 152.374 154.708C152.349 154.361 152.242 153.965 152.572 153.684C152.852 155.715 152.811 157.745 152.572 159.776Z" fill="#2693BF"/>
<path d="M90.9711 99.7817C90.9958 99.3855 90.7977 98.948 91.1444 98.6013C91.1444 98.9893 91.1692 99.4103 90.9711 99.7817ZM91.1444 103.826C90.8142 103.48 90.9876 103.042 90.9711 102.646C91.194 103.018 91.1444 103.43 91.1444 103.826Z" fill="#3398C2"/>
</g>
</g>
<defs>
<clipPath id="clip0_33_538">
<rect width="256" height="256" fill="white"/>
</clipPath>
<clipPath id="clip1_33_538">
<rect width="200" height="200" fill="white" transform="translate(28 28)"/>
</clipPath>
</defs>
</svg>

<svg xmlns="http://www.w3.org/2000/svg" width="256" height="256" fill="none" viewBox="0 0 256 256"><g clip-path="url(#a)"><path fill="#F4F2ED" d="M196 0H60A60 60 0 0 0 0 60v136a60 60 0 0 0 60 60h136a60 60 0 0 0 60-60V60a60 60 0 0 0-60-60"/><g clip-path="url(#b)"><path fill="#3398C2" d="M128.04 28a100 100 0 0 1 99.93 97.29c1.48 57.68-45.51 104-102.26 102.68-53.06-1.2-95.27-43.54-97.6-95.33C25.5 75.23 71.43 27.95 128.04 28"/><path fill="#FEFEFE" d="M91.21 98.03q.99-3.8 2.8-7.32a9.2 9.2 0 0 1 5.3-4.75 11 11 0 0 0 4.53-2.9 27.3 27.3 0 0 1 16.8-8.1c1.06-.1 1.61-.5 2.02-1.5.98-2.39 2.2-4.68 3.83-6.71 2.13-2.7 4.7-4.7 8.4-4.49a7.4 7.4 0 0 1 5.7 3 39 39 0 0 1 3.9 6.8c.38.77.69 1.05 1.63.85 3.45-.76 6.25.75 7.73 3.96a37 37 0 0 1 2.97 11.8c.88 8.46.3 16.8-2.56 24.9a56 56 0 0 1-6.92 13.33c-.35.5-.44.83.04 1.35 7.72 8.66 11.5 18.76 11.06 30.39v.83c.55.03.97-.3 1.38-.53 3.4-1.75 6.51-3.98 9.95-5.7 4.83-2.43 9.88-4.13 15.36-4.09 8.1.07 13.32 7.96 9.92 15-1.33 2.77-3.51 4.74-6.51 5.4-5.47 1.21-10.32 3.69-14.95 6.73-7.63 5.06-15.98 8.83-24.72 11.71-.6.2-1.14.44-1.65.83-2.33 1.75-5.07 2.47-7.91 2.87-8.64 1.2-17.32 1.72-26.02 2.1-3.58.15-7.15-.33-10.32-2.23-.85-.53-1.59-1.52-2.46-1.66-.85-.14-1.82.65-2.76.87-5.57 1.25-10.8.2-15.63-2.73-2.86-1.73-4.22-4.46-4.07-7.83a3.3 3.3 0 0 0-.74-2.27c-2.32-3.23-3.45-6.92-4.09-10.82-1.24-7.67 1.49-14 6.56-19.56.48-.53.65-1.05.65-1.75 0-7.67 1.46-14.97 5.4-21.66a43 43 0 0 1 8.22-9.86c.61-.54.68-.91.26-1.62a30 30 0 0 1-2.88-7.17c-.62-.44-.22-1.11-.47-1.66-.04-.41 0-.83-.13-1.24v-2.74c.1-.4.1-.8.1-1.22.1-.2.07-.46.28-.6"/><path fill="#3298C3" d="M91.14 103.83c.18.54-.04 1.15.29 1.68-.1.07-.1.5-.22.2a5 5 0 0 1-.41-1.88c-.04-2.1-.24-4.22.34-6.3q.04.26.1.5l-.07.57c-.2.37.02.81-.17 1.18v2.87c.14.37-.05.8.14 1.18"/><path fill="#3398C2" d="M152.57 159.78c0 2.01-.46 3.97-.72 5.94-.21 1.72-.04 1.92 1.71 1.62 3.94-.68 7.5-2.34 10.93-4.29 3.68-2.1 7.18-4.48 11.1-6.05a25 25 0 0 1 9.45-2.03c2.86 0 4.85 1.55 5.2 4 .33 2.28-.92 4.45-3.2 4.93-6.5 1.37-12.13 4.59-17.61 8.15-7.35 4.75-15.35 8.17-23.68 10.8-.3.09-.7.15-.9.34-1.96 2.08-4.56 2.43-7.19 2.78-7.36.96-14.77 1.4-22.2 1.83-2.14.13-4.29.2-6.43-.21-3.4-.68-4.85-1.95-5.37-4.75-.46-2.52.72-4.9 3.23-6.54l.97-.6a11 11 0 0 1-3.32-3.05c-.41-.57-.63-.21-.77.27l-1.24 4.74a22 22 0 0 1-1.08 3.08c-1.27 2.9-3.58 4.31-6.64 4.6-3.13.27-6.08-.42-8.87-1.8-1.93-.94-2.5-2.36-1.86-4.44.33-1.11.96-2.08 1.72-3.26-2.64.53-3.8-1-4.72-2.87a19.8 19.8 0 0 1-1.92-12.82c.67-3.54 2.76-6.43 5.25-8.92 1.46-1.46 1.9-2.86 1.86-4.92-.33-11.87 4.15-21.62 13.38-29.15.8-.68 1.61-1.38 2.47-2 .52-.36.58-.6.15-1.15-2.38-3-4.24-6.25-5.1-10.03-.96-4.26.49-7.95 2.63-11.5.31-.47.79-.71 1.32-.91a19 19 0 0 0 7.01-4.48 21.7 21.7 0 0 1 16.92-6.48c.83.05 1.2-.2 1.46-.98a37 37 0 0 1 3.85-8.17 11 11 0 0 1 2.16-2.58q2.44-2 4.09.64c2.01 3.21 3.56 6.67 5.13 10.12.4.88.7 1.18 1.62.59a17 17 0 0 1 3.47-1.58c.97-.33 1.53-.1 1.95.9a34 34 0 0 1 2.26 9.2c.1.88.3 1.73.2 2.6-.07 1.9.02 3.8.04 5.73 0 .85-.31 1.71-.05 2.58-.2 5.2-1.57 10.12-3.58 14.88-1.88 4.46-4.61 8.41-7.35 12.38-1.07 1.52-1.04 1.55.35 2.8 6.82 6.13 10.58 13.85 11.85 22.86q.04.52.02 1.09c-.28.83.03 1.64.04 2.45.08 1.23-.2 2.46.01 3.66"/><path fill="#2B95C1" d="M151.26 99.67c-.26-.21-.2-.52-.2-.8V92.2c0-.28-.06-.59.2-.81q.44 4.14 0 8.28"/><path fill="#2693BF" d="M152.57 159.78c-.44-1.69-.09-3.39-.2-5.07-.02-.35-.13-.75.2-1.03.28 2.03.24 4.06 0 6.1"/><path fill="#3398C2" d="M90.97 99.78c.03-.4-.17-.83.17-1.18 0 .39.03.81-.17 1.18m.17 4.05c-.33-.35-.15-.79-.17-1.18.22.37.17.78.17 1.18"/></g></g><defs><clipPath id="a"><path fill="#fff" d="M0 0h256v256H0z"/></clipPath><clipPath id="b"><path fill="#fff" d="M28 28h200v200H28z"/></clipPath></defs></svg>
